suite-common/icons/assets/icons/question.svg

<svg xmlns="http://www.w3.org/2000/svg" xml:space="preserve" fill="none" viewBox="0 0 16 16">
  <path fill="#1B1A19" fill-rule="evenodd" d="M7.48 1.269c-1.389.143-2.482.557-3.533 1.339a8.3 8.3 0 0 0-1.339 1.339c-.712.958-1.132 1.991-1.306 3.213-.045.314-.045 1.366 0 1.68.174 1.222.594 2.255 1.306 3.213.297.399.94 1.042 1.339 1.339a6.8 6.8 0 0 0 2.373 1.142 6.72 6.72 0 0 0 5.733-1.142 8.3 8.3 0 0 0 1.339-1.339 6.72 6.72 0 0 0 1.142-5.733q-.441-1.75-1.772-3.082C11.701 2.177 10.458 1.55 8.96 1.32c-.268-.041-1.247-.074-1.48-.051m1.031 1.506a5.2 5.2 0 0 1 1.849.545 5.08 5.08 0 0 1 2.32 2.32c.97 1.934.686 4.172-.738 5.824-.714.828-1.808 1.461-2.902 1.68a5.14 5.14 0 0 1-3.4-.464 5.08 5.08 0 0 1-2.32-2.32c-.764-1.522-.764-3.198 0-4.72a5.08 5.08 0 0 1 2.32-2.32 5.17 5.17 0 0 1 2.871-.545m-.947 1.518c-1.158.21-2.027 1.209-2.052 2.36-.005.245.001.28.07.42a.727.727 0 0 0 1.002.337c.275-.137.364-.294.427-.753a1.6 1.6 0 0 1 .081-.327c.073-.166.302-.396.478-.483.135-.066.177-.074.43-.073.333.001.458.047.669.244a.9.9 0 0 1 .305.534.96.96 0 0 1-.082.64c-.08.164-.268.361-.414.436a1.4 1.4 0 0 1-.53.133c-.23.001-.496.177-.624.412-.053.098-.057.146-.057.574 0 .43.004.475.058.576.151.282.371.419.671.417a.716.716 0 0 0 .711-.506c.027-.079.057-.103.203-.164a2.43 2.43 0 0 0 1.02-.752c1.01-1.278.571-3.146-.9-3.826-.337-.155-.548-.202-.963-.213a4 4 0 0 0-.503.014m.222 6.237a.86.86 0 0 0-.467.402.85.85 0 0 0-.025.563A.78.78 0 0 0 8 12c.303 0 .612-.22.706-.505a.85.85 0 0 0-.025-.563.95.95 0 0 0-.348-.352c-.116-.06-.429-.089-.547-.05"/>
</svg>

<svg xmlns="http://www.w3.org/2000/svg" xml:space="preserve" fill="none" viewBox="0 0 16 16"><path d="M7.480 1.269 C 6.091 1.412,4.998 1.826,3.947 2.608 C 3.548 2.905,2.905 3.548,2.608 3.947 C 1.896 4.905,1.476 5.938,1.302 7.160 C 1.257 7.474,1.257 8.526,1.302 8.840 C 1.476 10.062,1.896 11.095,2.608 12.053 C 2.905 12.452,3.548 13.095,3.947 13.392 C 4.679 13.936,5.483 14.323,6.320 14.534 C 8.337 15.041,10.385 14.633,12.053 13.392 C 12.452 13.095,13.095 12.452,13.392 12.053 C 14.633 10.385,15.041 8.337,14.534 6.320 C 14.241 5.155,13.648 4.125,12.762 3.238 C 11.701 2.177,10.458 1.550,8.960 1.320 C 8.692 1.279,7.713 1.246,7.480 1.269 M8.511 2.775 C 9.158 2.840,9.755 3.017,10.360 3.320 C 11.389 3.836,12.164 4.611,12.680 5.640 C 13.650 7.574,13.366 9.812,11.942 11.464 C 11.228 12.292,10.134 12.925,9.040 13.144 C 7.861 13.380,6.726 13.225,5.640 12.680 C 4.611 12.164,3.836 11.389,3.320 10.360 C 2.556 8.838,2.556 7.162,3.320 5.640 C 3.836 4.611,4.611 3.836,5.640 3.320 C 6.558 2.860,7.529 2.675,8.511 2.775 M7.564 4.293 C 6.406 4.503,5.537 5.502,5.512 6.653 C 5.507 6.898,5.513 6.933,5.582 7.073 C 5.770 7.457,6.201 7.602,6.584 7.410 C 6.859 7.273,6.948 7.116,7.011 6.657 C 7.027 6.542,7.064 6.394,7.092 6.330 C 7.165 6.164,7.394 5.934,7.570 5.847 C 7.705 5.781,7.747 5.773,8.000 5.774 C 8.333 5.775,8.458 5.821,8.669 6.018 C 8.845 6.183,8.926 6.325,8.974 6.552 C 9.020 6.777,8.994 6.983,8.892 7.192 C 8.812 7.356,8.624 7.553,8.478 7.628 C 8.339 7.699,8.095 7.760,7.948 7.761 C 7.718 7.762,7.452 7.938,7.324 8.173 C 7.271 8.271,7.267 8.319,7.267 8.747 C 7.267 9.177,7.271 9.222,7.325 9.323 C 7.476 9.605,7.696 9.742,7.996 9.740 C 8.341 9.737,8.596 9.556,8.707 9.234 C 8.734 9.155,8.764 9.131,8.910 9.070 C 9.341 8.891,9.667 8.651,9.930 8.318 C 10.940 7.040,10.501 5.172,9.030 4.492 C 8.693 4.337,8.482 4.290,8.067 4.279 C 7.861 4.274,7.635 4.280,7.564 4.293 M7.786 10.530 C 7.597 10.592,7.410 10.753,7.319 10.932 C 7.249 11.072,7.237 11.325,7.294 11.495 C 7.388 11.780,7.697 12.000,8.000 12.000 C 8.303 12.000,8.612 11.780,8.706 11.495 C 8.763 11.325,8.751 11.072,8.681 10.932 C 8.616 10.804,8.460 10.646,8.333 10.580 C 8.217 10.520,7.904 10.491,7.786 10.530 " fill="#1B1A19" stroke="none" fill-rule="evenodd"></path></svg>
